exports/daily-protein-supply-from-animal-and-plant-based-foods_v1_850x600.svg

<svg xmlns="http://www.w3.org/2000/svg" version="1.1" style="background-color:#fff;-webkit-font-smoothing:antialiased" width="850" height="600" font-family="'Helvetica Neue',Helvetica,Arial,sans-serif" font-size="18" text-rendering="optimizeLegibility"><g class="ChartTab"><g class="HeaderView"><g opacity=".8" transform="matrix(.31 0 0 .31 770 15)"><a xmlns:xlink="http://www.w3.org/1999/xlink" xlink:href="https://ourworldindata.org" target="_blank"><g><path fill="#1B2543" d="M0 0h211.2v130.1H0z"/><path fill="#E63912" d="M0 112.2h211.2v17.9H0z"/><g><path fill="none" d="M1.2 12.3h210.2v99.2H1.2z"/><path fill="#FFF" d="M37.8 32.2c0 12.7-7.7 19.4-17.1 19.4-9.7 0-16.6-7.5-16.6-18.7 0-11.7 7.3-19.3 17.1-19.3 10.1.1 16.6 7.7 16.6 18.6zm-28.6.6c0 7.9 4.3 14.9 11.8 14.9 7.5 0 11.8-6.9 11.8-15.3 0-7.3-3.8-14.9-11.8-14.9-7.9 0-11.8 7.3-11.8 15.3zM62.7 43.8c0 2.7.1 5.1.2 7.2h-4.3l-.3-4.3h-.1c-1.3 2.1-4 4.9-8.8 4.9-4.2 0-9.1-2.3-9.1-11.6V24.6h4.8v14.6c0 5 1.5 8.4 5.9 8.4 3.2 0 5.5-2.2 6.3-4.4.3-.7.4-1.6.4-2.5V24.6h4.8v19.2zM67.3 32.8c0-3.1-.1-5.8-.2-8.2h4.2l.2 5.2h.2c1.2-3.5 4.1-5.8 7.3-5.8.5 0 .9.1 1.4.2v4.5c-.5-.1-1-.2-1.6-.2-3.4 0-5.8 2.6-6.5 6.2-.1.7-.2 1.4-.2 2.2V51h-4.8V32.8zM95.4 51L86 14.2h5l4.4 18.6c1.1 4.6 2.1 9.2 2.7 12.7h.1c.6-3.7 1.8-8 3-12.8l4.9-18.5h5l4.5 18.7c1 4.4 2 8.7 2.6 12.6h.1c.8-4 1.8-8.1 3-12.7l4.9-18.5h4.9L120.6 51h-5L111 31.9c-1.1-4.7-1.9-8.3-2.4-12h-.1c-.7 3.7-1.5 7.3-2.8 12L100.4 51h-5zM154.9 37.6c0 9.8-6.8 14-13.2 14-7.2 0-12.7-5.2-12.7-13.6 0-8.8 5.8-14 13.1-14 7.7 0 12.8 5.5 12.8 13.6zm-21 .3c0 5.8 3.3 10.1 8 10.1 4.6 0 8-4.3 8-10.3 0-4.5-2.2-10.1-7.9-10.1s-8.1 5.2-8.1 10.3zM158.2 32.8c0-3.1-.1-5.8-.2-8.2h4.2l.2 5.2h.2c1.2-3.5 4.1-5.8 7.3-5.8.5 0 .9.1 1.4.2v4.5c-.5-.1-1-.2-1.6-.2-3.4 0-5.8 2.6-6.5 6.2-.1.7-.2 1.4-.2 2.2V51h-4.8V32.8zM173.5 12.3h4.8V51h-4.8V12.3zM206.5 12.3v31.9c0 2.3.1 5 .2 6.8h-4.3l-.2-4.6h-.2c-1.5 2.9-4.7 5.2-9 5.2-6.4 0-11.3-5.4-11.3-13.4-.1-8.8 5.4-14.2 11.9-14.2 4 0 6.8 1.9 8 4h.1V12.3h4.8zm-4.8 23.1c0-.6-.1-1.4-.2-2a7 7 0 00-6.9-5.6c-5 0-7.9 4.4-7.9 10.2 0 5.3 2.6 9.8 7.8 9.8 3.2 0 6.2-2.1 7.1-5.7.2-.7.2-1.3.2-2.1v-4.6zM42.8 64c.1 1.6-1.1 2.9-3.1 2.9-1.7 0-2.9-1.3-2.9-2.9 0-1.7 1.3-3 3-3 1.9 0 3 1.3 3 3zm-5.4 33.8V71.4h4.8v26.4h-4.8zM47.5 78.6c0-2.7-.1-5-.2-7.1h4.3l.3 4.4h.1c1.3-2.5 4.4-5 8.8-5 3.7 0 9.4 2.2 9.4 11.2v15.8h-4.8V82.6c0-4.3-1.6-7.8-6.1-7.8-3.2 0-5.6 2.2-6.5 4.9-.2.6-.3 1.4-.3 2.2v15.9h-4.8V78.6zM84 61.6c2.9-.4 6.3-.8 10.1-.8 6.8 0 11.7 1.6 14.9 4.6 3.3 3 5.2 7.3 5.2 13.2 0 6-1.9 10.9-5.3 14.3-3.4 3.4-9.1 5.3-16.3 5.3-3.4 0-6.2-.2-8.6-.4V61.6zm4.8 32.5c1.2.2 3 .3 4.8.3 10.2 0 15.7-5.7 15.7-15.6.1-8.7-4.9-14.2-14.9-14.2-2.5 0-4.3.2-5.6.5v29zM132.1 97.8l-.4-3.3h-.2a9.79 9.79 0 01-8.1 3.9c-5.4 0-8.1-3.8-8.1-7.6 0-6.4 5.7-9.9 15.9-9.8v-.5c0-2.2-.6-6.1-6-6.1-2.5 0-5 .8-6.9 2l-1.1-3.2c2.2-1.4 5.4-2.3 8.7-2.3 8.1 0 10.1 5.5 10.1 10.8v9.9c0 2.3.1 4.5.4 6.3h-4.3zm-.7-13.4c-5.3-.1-11.2.8-11.2 5.9 0 3.1 2.1 4.6 4.5 4.6 3.4 0 5.6-2.2 6.4-4.4.2-.5.3-1 .3-1.5v-4.6zM146.6 63.9v7.6h6.9v3.7h-6.9v14.2c0 3.3.9 5.1 3.6 5.1 1.3 0 2.2-.2 2.8-.3l.2 3.6c-.9.4-2.4.7-4.3.7-2.2 0-4-.7-5.2-2-1.4-1.4-1.9-3.8-1.9-6.9V75.1h-4.1v-3.7h4.1v-6.3l4.8-1.2zM171.4 97.8l-.4-3.3h-.2a9.79 9.79 0 01-8.1 3.9c-5.4 0-8.1-3.8-8.1-7.6 0-6.4 5.7-9.9 15.9-9.8v-.5c0-2.2-.6-6.1-6-6.1-2.5 0-5 .8-6.9 2l-1.1-3.2c2.2-1.4 5.4-2.3 8.7-2.3 8.1 0 10.1 5.5 10.1 10.8v9.9c0 2.3.1 4.5.4 6.3h-4.3zm-.7-13.4c-5.3-.1-11.2.8-11.2 5.9 0 3.1 2.1 4.6 4.5 4.6 3.4 0 5.6-2.2 6.4-4.4.2-.5.3-1 .3-1.5v-4.6z"/></g></g></a></g><a href="https://ourworldindata.org/grapher/daily-protein-supply-from-animal-and-plant-based-foods" target="_blank"><text font-size="23.4" x="15" y="33.7" fill="#555"><tspan x="15" y="33.72">Daily protein supply from animal and plant-based foods, United States</tspan></text></a><text font-size="14.4" x="15" y="51.9" fill="#666"><tspan x="15" y="51.92">Daily per capita protein supply, measured as the average supply in grams per person per day, broken down by</tspan><tspan x="15" y="67.76">supply from animal-based and plant-based food products. Protein of animal origin includes protein supplied in the</tspan><tspan x="15" y="83.6">form of all meat commodities, eggs and dairy products, and fish &amp; seafood.</tspan></text></g><g class="StackedArea"><defs><clipPath id="a"><path d="M61.63 0h820v901.4h-820z"/></clipPath></defs><g class="AxisBoxView"><g class="HorizontalAxis" fill="#666" text-anchor="middle" font-size="16.2"><text x="61.6" y="556.5">1947</text><text x="185.2" y="556.5">1960</text><text x="280.3" y="556.5">1970</text><text x="375.3" y="556.5">1980</text><text x="470.4" y="556.5">1990</text><text x="565.4" y="556.5">2000</text><text x="689" y="556.5">2013</text></g><g class="VerticalAxis" fill="#666" dominant-baseline="middle" text-anchor="end" font-size="16.2"><text x="56.63" y="535.3">0%</text><text x="56.63" y="460.9">20%</text><text x="56.63" y="386.5">40%</text><text x="56.63" y="312.1">60%</text><text x="56.63" y="237.8">80%</text><text x="56.63" y="163.4">100%</text></g><g class="AxisGridLines"><path stroke="#ccc" d="M61.63 535.3H689"/><path stroke="#ddd" stroke-dasharray="3,2" d="M61.63 460.9H689M61.63 386.5H689M61.63 312.1H689M61.63 237.8H689M61.63 163.4H689"/></g><g class="AxisGridLines" stroke="#ddd" stroke-dasharray="3,2"><path d="M90.2 535.3V105.8M185.2 535.3V105.8M280.3 535.3V105.8M375.3 535.3V105.8M470.4 535.3V105.8M565.4 535.3V105.8M660.5 535.3V105.8"/></g></g><g clip-path="url(#a)"><g class="HeightedLegend clickable"><g class="legendMark"><path fill="#2a939b" d="M694 256.15h10v2.5h-10z"/><text font-size="14.4" x="709" y="254" fill="#333"><tspan x="709" y="253.97">Daily protein supply</tspan><tspan x="709" y="269.81">of animal origin</tspan></text></g><g class="legendMark"><path fill="#5eb77e" d="M694 459.95h10v2.5h-10z"/><text font-size="14.4" x="709" y="457.8" fill="#333"><tspan x="709" y="457.77">Daily protein supply</tspan><tspan x="709" y="473.61">of plant origin</tspan></text></g></g><g class="Areas"><path d="M61.6 400.7l9.5 5.5 123.6 9.3 9.5 1.2h9.5l9.5-.7 9.5 1.9 9.5-.8 9.5-1.2 9.6.2 9.5-1.9 9.5 3.9 9.5-1 9.5 3 9.5-3.5 9.5 2.8 9.5-8.7 9.5-.2 9.5 5 9.5-2.3 9.5-4.3 9.5 7.6 9.5-7.9 9.5 2.3 9.5 1.2 9.5-2.4 9.5-8 9.6 4.1 9.5-7.2 9.5-3 9.5-.2 9.5-3.7 9.5-5.2 9.5 2.4 9.5-2.3 9.5-4.5 9.5 5.3 9.5-4.2 9.5-3.3 9.5 1.8 9.5-1h9.5l9.5 4.2 9.5 1.6 9.5-1.1 9.6-1.4 9.5.9 9.5 1 9.5-2.6 9.5 2.1 9.5 2.2 9.5-.1 9.5 2.5 9.5-3.2 9.5.4v148.1H61.63" fill="#5eb77e" fill-opacity=".7" class="United-States_1-area"/><path d="M61.6 166.3l9.5 15.7 123.6-.8 9.5 2.3 9.5-3.8 9.5-6.5 9.5 3 9.5-6.6 9.5-1.5 9.6-3.7 9.5 2 9.5 3.3 9.5-3.6 9.5 1.2 9.5 5.7 9.5.9 9.5-1.5 9.5-13.2 9.5 7.1 9.5-.9 9.5-3.3 9.5 7.6 9.5-8.9 9.5 5.5 9.5-5.3 9.5-4.2 9.5-13.2 9.6 2.8 9.5-9.7 9.5.2 9.5 1 9.5-3.8 9.5-6 9.5-1.9 9.5-1.7 9.5-10 9.5 5.5 9.5-.1 9.5-2.2 9.5-2.3 9.5-7.1 9.5 1.9 9.5 5.6 9.5-5.9 9.5-.7 9.6-3.4 9.5 1.5 9.5 1.8 9.5-1 9.5 7.3 9.5 7.4 9.5 1 9.5 7.5 9.5-3.9 9.5.3v259.5l-9.5-.4-9.5 3.2-9.5-2.5-9.5.1-9.5-2.2-9.5-2.1-9.5 2.6-9.5-1-9.5-.9-9.6 1.4-9.5 1.1-9.5-1.6-9.5-4.2h-9.5l-9.5 1-9.5-1.8-9.5 3.3-9.5 4.2-9.5-5.3-9.5 4.5-9.5 2.3-9.5-2.4-9.5 5.2-9.5 3.7-9.5.2-9.5 3-9.5 7.2-9.6-4.1-9.5 8-9.5 2.4-9.5-1.2-9.5-2.3-9.5 7.9-9.5-7.6-9.5 4.3-9.5 2.3-9.5-5-9.5.2-9.5 8.7-9.5-2.8-9.5 3.5-9.5-3-9.5 1-9.5-3.9-9.5 1.9-9.6-.2-9.5 1.2-9.5.8-9.5-1.9-9.5.7h-9.5l-9.5-1.2-123.6-9.3-9.5-5.5" fill="#2a939b" fill-opacity=".7" class="United-States_0-area"/><path stroke-linecap="round" d="M61.6 400.7l9.5 5.5 123.6 9.3 9.5 1.2h9.5l9.5-.7 9.5 1.9 9.5-.8 9.5-1.2 9.6.2 9.5-1.9 9.5 3.9 9.5-1 9.5 3 9.5-3.5 9.5 2.8 9.5-8.7 9.5-.2 9.5 5 9.5-2.3 9.5-4.3 9.5 7.6 9.5-7.9 9.5 2.3 9.5 1.2 9.5-2.4 9.5-8 9.6 4.1 9.5-7.2 9.5-3 9.5-.2 9.5-3.7 9.5-5.2 9.5 2.4 9.5-2.3 9.5-4.5 9.5 5.3 9.5-4.2 9.5-3.3 9.5 1.8 9.5-1h9.5l9.5 4.2 9.5 1.6 9.5-1.1 9.6-1.4 9.5.9 9.5 1 9.5-2.6 9.5 2.1 9.5 2.2 9.5-.1 9.5 2.5 9.5-3.2 9.5.4" stroke="#4F9969" stroke-opacity=".7" stroke-width=".5" fill="none" class="United-States_1-border"/><path stroke-linecap="round" d="M61.6 166.3l9.5 15.7 123.6-.8 9.5 2.3 9.5-3.8 9.5-6.5 9.5 3 9.5-6.6 9.5-1.5 9.6-3.7 9.5 2 9.5 3.3 9.5-3.6 9.5 1.2 9.5 5.7 9.5.9 9.5-1.5 9.5-13.2 9.5 7.1 9.5-.9 9.5-3.3 9.5 7.6 9.5-8.9 9.5 5.5 9.5-5.3 9.5-4.2 9.5-13.2 9.6 2.8 9.5-9.7 9.5.2 9.5 1 9.5-3.8 9.5-6 9.5-1.9 9.5-1.7 9.5-10 9.5 5.5 9.5-.1 9.5-2.2 9.5-2.3 9.5-7.1 9.5 1.9 9.5 5.6 9.5-5.9 9.5-.7 9.6-3.4 9.5 1.5 9.5 1.8 9.5-1 9.5 7.3 9.5 7.4 9.5 1 9.5 7.5 9.5-3.9 9.5.3" stroke="#237B82" stroke-opacity=".7" stroke-width=".5" fill="none" class="United-States_0-border"/></g></g></g><g class="SourcesFooter" fill="#777"><g class="clickable" fill="#777"><text font-size="12.6" x="15" y="581.6"><tspan x="15" y="581.58">Source: UN Food and Agricultural Organization (FAO)</tspan></text></g><text font-size="12.6" x="552" y="581.6"><tspan x="552" y="581.58"><a target="_blank" href="https://ourworldindata.org/food-per-person/" fill="#777">OurWorldInData.org/food-per-person/</a> • <a href="http://creativecommons.org/licenses/by-sa/4.0/deed.en_US" target="_blank" fill="#777">CC BY-SA</a></tspan></text></g></g></svg>

<svg xmlns="http://www.w3.org/2000/svg" version="1.1" style="font-family: 'Helvetica Neue', Helvetica, Arial, sans-serif; font-size: 18px; background-color: white; text-rendering: optimizeLegibility; -webkit-font-smoothing: antialiased;" width="850" height="600"><g class="ChartTab"><g class="HeaderView"><g opacity="0.8" transform="translate(770, 15) scale(0.31)"><a xmlns:xlink="http://www.w3.org/1999/xlink" xlink:href="https://ourworldindata.org" target="_blank"><g><rect x="0" y="0" fill="#1B2543" width="211.2" height="130.1"/><rect x="0" y="112.2" fill="#E63912" width="211.2" height="17.9"/><g><rect x="1.2" y="12.3" fill="none" width="210.2" height="99.2"/><path fill="#FFFFFF" d="M37.8,32.2c0,12.7-7.7,19.4-17.1,19.4c-9.7,0-16.6-7.5-16.6-18.7c0-11.7,7.3-19.3,17.1-19.3 C31.3,13.7,37.8,21.3,37.8,32.2z M9.2,32.8c0,7.9,4.3,14.9,11.8,14.9c7.5,0,11.8-6.9,11.8-15.3c0-7.3-3.8-14.9-11.8-14.9 C13.1,17.5,9.2,24.8,9.2,32.8z"/><path fill="#FFFFFF" d="M62.7,43.8c0,2.7,0.1,5.1,0.2,7.2h-4.3l-0.3-4.3h-0.1c-1.3,2.1-4,4.9-8.8,4.9c-4.2,0-9.1-2.3-9.1-11.6 V24.6h4.8v14.6c0,5,1.5,8.4,5.9,8.4c3.2,0,5.5-2.2,6.3-4.4c0.3-0.7,0.4-1.6,0.4-2.5V24.6h4.8V43.8z"/><path fill="#FFFFFF" d="M67.3,32.8c0-3.1-0.1-5.8-0.2-8.2h4.2l0.2,5.2h0.2c1.2-3.5,4.1-5.8,7.3-5.8c0.5,0,0.9,0.1,1.4,0.2v4.5 c-0.5-0.1-1-0.2-1.6-0.2c-3.4,0-5.8,2.6-6.5,6.2c-0.1,0.7-0.2,1.4-0.2,2.2V51h-4.8V32.8z"/><path fill="#FFFFFF" d="M95.4,51l-9.4-36.8h5l4.4,18.6c1.1,4.6,2.1,9.2,2.7,12.7h0.1c0.6-3.7,1.8-8,3-12.8l4.9-18.5h5l4.5,18.7 c1,4.4,2,8.7,2.6,12.6h0.1c0.8-4,1.8-8.1,3-12.7l4.9-18.5h4.9L120.6,51h-5L111,31.9c-1.1-4.7-1.9-8.3-2.4-12h-0.1 c-0.7,3.7-1.5,7.3-2.8,12L100.4,51H95.4z"/><path fill="#FFFFFF" d="M154.9,37.6c0,9.8-6.8,14-13.2,14c-7.2,0-12.7-5.2-12.7-13.6c0-8.8,5.8-14,13.1-14 C149.8,24,154.9,29.5,154.9,37.6z M133.9,37.9c0,5.8,3.3,10.1,8,10.1c4.6,0,8-4.3,8-10.3c0-4.5-2.2-10.1-7.9-10.1 C136.3,27.6,133.9,32.8,133.9,37.9z"/><path fill="#FFFFFF" d="M158.2,32.8c0-3.1-0.1-5.8-0.2-8.2h4.2l0.2,5.2h0.2c1.2-3.5,4.1-5.8,7.3-5.8c0.5,0,0.9,0.1,1.4,0.2v4.5 c-0.5-0.1-1-0.2-1.6-0.2c-3.4,0-5.8,2.6-6.5,6.2c-0.1,0.7-0.2,1.4-0.2,2.2V51h-4.8V32.8z"/><path fill="#FFFFFF" d="M173.5,12.3h4.8V51h-4.8V12.3z"/><path fill="#FFFFFF" d="M206.5,12.3v31.9c0,2.3,0.1,5,0.2,6.8h-4.3l-0.2-4.6H202c-1.5,2.9-4.7,5.2-9,5.2 c-6.4,0-11.3-5.4-11.3-13.4c-0.1-8.8,5.4-14.2,11.9-14.2c4,0,6.8,1.9,8,4h0.1V12.3H206.5z M201.7,35.4c0-0.6-0.1-1.4-0.2-2 c-0.7-3.1-3.3-5.6-6.9-5.6c-5,0-7.9,4.4-7.9,10.2c0,5.3,2.6,9.8,7.8,9.8c3.2,0,6.2-2.1,7.1-5.7c0.2-0.7,0.2-1.3,0.2-2.1V35.4z"/><path fill="#FFFFFF" d="M42.8,64c0.1,1.6-1.1,2.9-3.1,2.9c-1.7,0-2.9-1.3-2.9-2.9c0-1.7,1.3-3,3-3C41.7,61,42.8,62.3,42.8,64z M37.4,97.8V71.4h4.8v26.4H37.4z"/><path fill="#FFFFFF" d="M47.5,78.6c0-2.7-0.1-5-0.2-7.1h4.3l0.3,4.4h0.1c1.3-2.5,4.4-5,8.8-5c3.7,0,9.4,2.2,9.4,11.2v15.8h-4.8 V82.6c0-4.3-1.6-7.8-6.1-7.8c-3.2,0-5.6,2.2-6.5,4.9c-0.2,0.6-0.3,1.4-0.3,2.2v15.9h-4.8V78.6z"/><path fill="#FFFFFF" d="M84,61.6c2.9-0.4,6.3-0.8,10.1-0.8c6.8,0,11.7,1.6,14.9,4.6c3.3,3,5.2,7.3,5.2,13.2c0,6-1.9,10.9-5.3,14.3 c-3.4,3.4-9.1,5.3-16.3,5.3c-3.4,0-6.2-0.2-8.6-0.4V61.6z M88.8,94.1c1.2,0.2,3,0.3,4.8,0.3c10.2,0,15.7-5.7,15.7-15.6 c0.1-8.7-4.9-14.2-14.9-14.2c-2.5,0-4.3,0.2-5.6,0.5V94.1z"/><path fill="#FFFFFF" d="M132.1,97.8l-0.4-3.3h-0.2c-1.5,2.1-4.3,3.9-8.1,3.9c-5.4,0-8.1-3.8-8.1-7.6c0-6.4,5.7-9.9,15.9-9.8v-0.5 c0-2.2-0.6-6.1-6-6.1c-2.5,0-5,0.8-6.9,2l-1.1-3.2c2.2-1.4,5.4-2.3,8.7-2.3c8.1,0,10.1,5.5,10.1,10.8v9.9c0,2.3,0.1,4.5,0.4,6.3 H132.1z M131.4,84.4c-5.3-0.1-11.2,0.8-11.2,5.9c0,3.1,2.1,4.6,4.5,4.6c3.4,0,5.6-2.2,6.4-4.4c0.2-0.5,0.3-1,0.3-1.5V84.4z"/><path fill="#FFFFFF" d="M146.6,63.9v7.6h6.9v3.7h-6.9v14.2c0,3.3,0.9,5.1,3.6,5.1c1.3,0,2.2-0.2,2.8-0.3l0.2,3.6 c-0.9,0.4-2.4,0.7-4.3,0.7c-2.2,0-4-0.7-5.2-2c-1.4-1.4-1.9-3.8-1.9-6.9V75.1h-4.1v-3.7h4.1v-6.3L146.6,63.9z"/><path fill="#FFFFFF" d="M171.4,97.8l-0.4-3.3h-0.2c-1.5,2.1-4.3,3.9-8.1,3.9c-5.4,0-8.1-3.8-8.1-7.6c0-6.4,5.7-9.9,15.9-9.8v-0.5 c0-2.2-0.6-6.1-6-6.1c-2.5,0-5,0.8-6.9,2l-1.1-3.2c2.2-1.4,5.4-2.3,8.7-2.3c8.1,0,10.1,5.5,10.1,10.8v9.9c0,2.3,0.1,4.5,0.4,6.3 H171.4z M170.7,84.4c-5.3-0.1-11.2,0.8-11.2,5.9c0,3.1,2.1,4.6,4.5,4.6c3.4,0,5.6-2.2,6.4-4.4c0.2-0.5,0.3-1,0.3-1.5V84.4z"/></g></g></a></g><a href="https://ourworldindata.org/grapher/daily-protein-supply-from-animal-and-plant-based-foods" target="_blank"><text font-size="23.40" x="15.0" y="33.7" fill="#555"><tspan x="15" y="33.72">Daily protein supply from animal and plant-based foods, United States</tspan></text></a><text font-size="14.40" x="15.0" y="51.9" fill="#666"><tspan x="15" y="51.919999999999995">Daily per capita protein supply, measured as the average supply in grams per person per day, broken down by</tspan><tspan x="15" y="67.75999999999999">supply from animal-based and plant-based food products. Protein of animal origin includes protein supplied in the</tspan><tspan x="15" y="83.6">form of all meat commodities, eggs and dairy products, and fish &amp; seafood.</tspan></text></g><g class="StackedArea"><defs><clipPath id="boundsClip-11"><rect x="61.634" y="0" width="820" height="901.4"></rect></clipPath></defs><g class="AxisBoxView"><g class="HorizontalAxis"><text x="61.6" y="556.5" fill="#666" text-anchor="middle" font-size="16.2">1947</text><text x="185.2" y="556.5" fill="#666" text-anchor="middle" font-size="16.2">1960</text><text x="280.3" y="556.5" fill="#666" text-anchor="middle" font-size="16.2">1970</text><text x="375.3" y="556.5" fill="#666" text-anchor="middle" font-size="16.2">1980</text><text x="470.4" y="556.5" fill="#666" text-anchor="middle" font-size="16.2">1990</text><text x="565.4" y="556.5" fill="#666" text-anchor="middle" font-size="16.2">2000</text><text x="689" y="556.5" fill="#666" text-anchor="middle" font-size="16.2">2013</text></g><g class="VerticalAxis"><text x="56.63" y="535.3" fill="#666" dominant-baseline="middle" text-anchor="end" font-size="16.2">0%</text><text x="56.63" y="460.9" fill="#666" dominant-baseline="middle" text-anchor="end" font-size="16.2">20%</text><text x="56.63" y="386.5" fill="#666" dominant-baseline="middle" text-anchor="end" font-size="16.2">40%</text><text x="56.63" y="312.1" fill="#666" dominant-baseline="middle" text-anchor="end" font-size="16.2">60%</text><text x="56.63" y="237.8" fill="#666" dominant-baseline="middle" text-anchor="end" font-size="16.2">80%</text><text x="56.63" y="163.4" fill="#666" dominant-baseline="middle" text-anchor="end" font-size="16.2">100%</text></g><g class="AxisGridLines"><line x1="61.63" y1="535.3" x2="689.00" y2="535.3" stroke="#ccc"></line><line x1="61.63" y1="460.9" x2="689.00" y2="460.9" stroke="#ddd" stroke-dasharray="3,2"></line><line x1="61.63" y1="386.5" x2="689.00" y2="386.5" stroke="#ddd" stroke-dasharray="3,2"></line><line x1="61.63" y1="312.1" x2="689.00" y2="312.1" stroke="#ddd" stroke-dasharray="3,2"></line><line x1="61.63" y1="237.8" x2="689.00" y2="237.8" stroke="#ddd" stroke-dasharray="3,2"></line><line x1="61.63" y1="163.4" x2="689.00" y2="163.4" stroke="#ddd" stroke-dasharray="3,2"></line></g><g class="AxisGridLines"><line x1="90.2" y1="535.30" x2="90.2" y2="105.80" stroke="#ddd" stroke-dasharray="3,2"></line><line x1="185.2" y1="535.30" x2="185.2" y2="105.80" stroke="#ddd" stroke-dasharray="3,2"></line><line x1="280.3" y1="535.30" x2="280.3" y2="105.80" stroke="#ddd" stroke-dasharray="3,2"></line><line x1="375.3" y1="535.30" x2="375.3" y2="105.80" stroke="#ddd" stroke-dasharray="3,2"></line><line x1="470.4" y1="535.30" x2="470.4" y2="105.80" stroke="#ddd" stroke-dasharray="3,2"></line><line x1="565.4" y1="535.30" x2="565.4" y2="105.80" stroke="#ddd" stroke-dasharray="3,2"></line><line x1="660.5" y1="535.30" x2="660.5" y2="105.80" stroke="#ddd" stroke-dasharray="3,2"></line></g></g><g clip-path="url(#boundsClip-11)"><g class="HeightedLegend clickable"><g class="legendMark"><rect x="694" y="242.45" width="141" height="29.900000000000002" fill="#fff" opacity="0"></rect><rect x="694" y="256.15" width="10" height="2.5" fill="#2a939b"></rect><text font-size="14.40" x="709.0" y="254.0" fill="#333"><tspan x="709" y="253.96999999999997">Daily protein supply</tspan><tspan x="709" y="269.80999999999995">of animal origin</tspan></text></g><g class="legendMark"><rect x="694" y="446.25" width="141" height="29.900000000000002" fill="#fff" opacity="0"></rect><rect x="694" y="459.95" width="10" height="2.5" fill="#5eb77e"></rect><text font-size="14.40" x="709.0" y="457.8" fill="#333"><tspan x="709" y="457.77">Daily protein supply</tspan><tspan x="709" y="473.60999999999996">of plant origin</tspan></text></g></g><g class="Areas"><rect x="61.634" y="105.80000000000001" width="627.366" height="429.49999999999994" opacity="0" fill="rgba(255,255,255,0)"></rect><path stroke-linecap="round" d="M61.6 400.7L71.1 406.2L194.7 415.5L204.2 416.7L213.7 416.7L223.2 416L232.7 417.9L242.2 417.1L251.7 415.9L261.3 416.1L270.8 414.2L280.3 418.1L289.8 417.1L299.3 420.1L308.8 416.6L318.3 419.4L327.8 410.7L337.3 410.5L346.8 415.5L356.3 413.2L365.8 408.9L375.3 416.5L384.8 408.6L394.3 410.9L403.8 412.1L413.3 409.7L422.8 401.7L432.4 405.8L441.9 398.6L451.4 395.6L460.9 395.4L470.4 391.7L479.9 386.5L489.4 388.9L498.9 386.6L508.4 382.1L517.9 387.4L527.4 383.2L536.9 379.9L546.4 381.7L555.9 380.7L565.4 380.7L574.9 384.9L584.4 386.5L593.9 385.4L603.5 384L613 384.9L622.5 385.9L632 383.3L641.5 385.4L651 387.6L660.5 387.5L670 390L679.5 386.8L689 387.2L689 535.3L61.634 535.3" fill="#5eb77e" fill-opacity="0.7" class="United-States_1-area"></path><path stroke-linecap="round" d="M61.6 166.3L71.1 182L194.7 181.2L204.2 183.5L213.7 179.7L223.2 173.2L232.7 176.2L242.2 169.6L251.7 168.1L261.3 164.4L270.8 166.4L280.3 169.7L289.8 166.1L299.3 167.3L308.8 173L318.3 173.9L327.8 172.4L337.3 159.2L346.8 166.3L356.3 165.4L365.8 162.1L375.3 169.7L384.8 160.8L394.3 166.3L403.8 161L413.3 156.8L422.8 143.6L432.4 146.4L441.9 136.7L451.4 136.9L460.9 137.9L470.4 134.1L479.9 128.1L489.4 126.2L498.9 124.5L508.4 114.5L517.9 120L527.4 119.9L536.9 117.7L546.4 115.4L555.9 108.3L565.4 110.2L574.9 115.8L584.4 109.9L593.9 109.2L603.5 105.8L613 107.3L622.5 109.1L632 108.1L641.5 115.4L651 122.8L660.5 123.8L670 131.3L679.5 127.4L689 127.7L689 387.2L679.5 386.8L670 390L660.5 387.5L651 387.6L641.5 385.4L632 383.3L622.5 385.9L613 384.9L603.5 384L593.9 385.4L584.4 386.5L574.9 384.9L565.4 380.7L555.9 380.7L546.4 381.7L536.9 379.9L527.4 383.2L517.9 387.4L508.4 382.1L498.9 386.6L489.4 388.9L479.9 386.5L470.4 391.7L460.9 395.4L451.4 395.6L441.9 398.6L432.4 405.8L422.8 401.7L413.3 409.7L403.8 412.1L394.3 410.9L384.8 408.6L375.3 416.5L365.8 408.9L356.3 413.2L346.8 415.5L337.3 410.5L327.8 410.7L318.3 419.4L308.8 416.6L299.3 420.1L289.8 417.1L280.3 418.1L270.8 414.2L261.3 416.1L251.7 415.9L242.2 417.1L232.7 417.9L223.2 416L213.7 416.7L204.2 416.7L194.7 415.5L71.1 406.2L61.6 400.7" fill="#2a939b" fill-opacity="0.7" class="United-States_0-area"></path><path stroke-linecap="round" d="M61.6 400.7L71.1 406.2L194.7 415.5L204.2 416.7L213.7 416.7L223.2 416L232.7 417.9L242.2 417.1L251.7 415.9L261.3 416.1L270.8 414.2L280.3 418.1L289.8 417.1L299.3 420.1L308.8 416.6L318.3 419.4L327.8 410.7L337.3 410.5L346.8 415.5L356.3 413.2L365.8 408.9L375.3 416.5L384.8 408.6L394.3 410.9L403.8 412.1L413.3 409.7L422.8 401.7L432.4 405.8L441.9 398.6L451.4 395.6L460.9 395.4L470.4 391.7L479.9 386.5L489.4 388.9L498.9 386.6L508.4 382.1L517.9 387.4L527.4 383.2L536.9 379.9L546.4 381.7L555.9 380.7L565.4 380.7L574.9 384.9L584.4 386.5L593.9 385.4L603.5 384L613 384.9L622.5 385.9L632 383.3L641.5 385.4L651 387.6L660.5 387.5L670 390L679.5 386.8L689 387.2" stroke="rgb(79, 153, 105)" stroke-opacity="0.7" stroke-width="0.5" fill="none" class="United-States_1-border"></path><path stroke-linecap="round" d="M61.6 166.3L71.1 182L194.7 181.2L204.2 183.5L213.7 179.7L223.2 173.2L232.7 176.2L242.2 169.6L251.7 168.1L261.3 164.4L270.8 166.4L280.3 169.7L289.8 166.1L299.3 167.3L308.8 173L318.3 173.9L327.8 172.4L337.3 159.2L346.8 166.3L356.3 165.4L365.8 162.1L375.3 169.7L384.8 160.8L394.3 166.3L403.8 161L413.3 156.8L422.8 143.6L432.4 146.4L441.9 136.7L451.4 136.9L460.9 137.9L470.4 134.1L479.9 128.1L489.4 126.2L498.9 124.5L508.4 114.5L517.9 120L527.4 119.9L536.9 117.7L546.4 115.4L555.9 108.3L565.4 110.2L574.9 115.8L584.4 109.9L593.9 109.2L603.5 105.8L613 107.3L622.5 109.1L632 108.1L641.5 115.4L651 122.8L660.5 123.8L670 131.3L679.5 127.4L689 127.7" stroke="rgb(35, 123, 130)" stroke-opacity="0.7" stroke-width="0.5" fill="none" class="United-States_0-border"></path></g></g></g><g style="fill: #777;" class="SourcesFooter"><g style="fill: #777;" class="clickable"><text font-size="12.60" x="15.0" y="581.6"><tspan x="15" y="581.58">Source: UN Food and Agricultural Organization (FAO)</tspan></text></g><text font-size="12.60" x="552.0" y="581.6"><tspan x="552.004" y="581.58"><a target='_blank' style='fill: #777;' href='https://ourworldindata.org/food-per-person/'>OurWorldInData.org/food-per-person/</a> • <a style="fill: #777;" href="http://creativecommons.org/licenses/by-sa/4.0/deed.en_US" target="_blank">CC BY-SA</a></tspan></text></g></g></svg>
